X: 1
T: the Three Captains
T: the Three Sea Captains
R: reel
Z: 2020 John Chambers <jc:trillian.mit.edu>
S: https://www.facebook.com/groups/Fiddletuneoftheday/
S: https://www.facebook.com/groups/Fiddletuneoftheday/photos/
M: C|
L: 1/8
K: G
D |\
"G"GG (3BGB "D7"cAFA | "G"GG (3BGB dBGB |\
"C"(3cec "(D)"Ac "G"(3BdB GB | "Am"ABcB "D7"(3AcG (3FED |\
"G"GG (3BGB "D7"cAFA | "G"GG (3BGB dBGB |
"C"(3cec "(D)"AA "G"(3BdB GB | "Am"(3EcB "D7"(3AGF "G"G2G :: d |\
"G"gg (3dcB "Am"(3ABc "D7"(3def | "G"gg (3dBd "Am"ecA "D7"AA |\
"G"gg (3bge "D7"fg (3afd | "A7"(3ege (3edc "D7"d2 (3dcB |
"C"cd (3ecA "G"Bc (3dBG | "Am"ABcB "D7"(3ABG (3FED |\
"G"GG (3BGB "D7"cAFA | "G"GG (3BGB dBGG |\
"C"cec "(D)"AA "G"(3BdB GG | "Am"(3EcB "D7"(3AGF "G"G2G :|
